X: 38684
T: Strathearn
R: strathspey
M: 4/4
K: Gminor
d|:G<G d>c d<g g2|f>c d<f c>B A<F|G<G d>c {c}A>c d>g|f>g a>A G2 G>A:|
G<g g>f g<a g2|f>g a>g f>d f<c|d<g g>f d>f g>a|f>g a>A G2 G>A|
G<g g>f g<a g2|f>g a>g f>d f<c|d<c d<f g>f g<a|f>g a>A G2 G>A||

